static/images/mobile/copyright/wikipedia-wordmark-ty.svg

<svg width="120" height="20" viewBox="0 0 120 20" fill="none" xmlns="http://www.w3.org/2000/svg">
<path fill-rule="evenodd" clip-rule="evenodd" d="M13.2628 0.511796C13.2726 0.755526 13.3164 0.916377 13.3944 0.994346C14.4278 1.07235 15.0419 1.31606 15.2369 1.72548C15.4416 2.13494 15.3539 2.74909 14.9737 3.56795L10.2505 15.5732H10.1043L5.3373 3.37785C4.9766 2.49076 4.88886 1.90097 5.07409 1.6085C5.25931 1.30632 5.85396 1.1016 6.85806 0.994346C6.93604 0.906628 6.97504 0.745778 6.97505 0.511796C6.97504 0.268103 6.93604 0.0975042 6.85806 0C4.9766 0.0390133 3.76779 0.0585103 3.23162 0.0584909C3.03665 0.0585103 1.99844 0.0390133 0.116982 0C0.038994 0.0975042 0 0.263228 0 0.497173C0 0.731155 0.0487425 0.89688 0.146227 0.994346C0.9651 1.0626 1.50127 1.24295 1.75473 1.53539C2.01794 1.81811 2.37863 2.54437 2.83681 3.71417L8.7444 19.0388C8.91986 19.5067 9.14895 19.7407 9.43166 19.7407C9.73386 19.7309 9.9727 19.497 10.1482 19.0388L16.3482 3.77267C16.5139 3.36324 16.626 3.08541 16.6845 2.93917C16.7528 2.79296 16.8746 2.57362 17.0501 2.28115C17.2256 1.97896 17.3962 1.76937 17.5619 1.65237C17.7374 1.52566 17.9713 1.39893 18.2638 1.27218C18.566 1.13572 18.9072 1.04311 19.2874 0.994346C19.3849 0.906628 19.4336 0.745778 19.4336 0.511796C19.4336 0.268103 19.3849 0.0975042 19.2874 0C17.6886 0.0390133 16.8113 0.0585103 16.6553 0.0584909C16.3628 0.0585103 15.2759 0.0390133 13.3944 0C13.3067 0.0975042 13.2628 0.268103 13.2628 0.511796ZM105.321 18.678L106.176 18.7381C106.294 18.7381 106.412 18.8266 106.412 18.9728V19.5329L106.353 19.593C106.353 19.593 103.14 19.5329 102.432 19.5329C101.665 19.5329 99.7783 19.593 99.7783 19.593L99.7183 19.5329V18.9728C99.7183 18.8266 99.8067 18.7381 99.9552 18.7381C101.253 18.6497 101.988 18.4127 102.813 16.5262L109.356 1.19667C109.679 0.430256 109.916 0.13435 110.361 0.13435C110.771 0.13435 110.92 0.430258 111.154 1.01981L117.197 16.9967C117.611 18.1474 118.202 18.5885 119.381 18.7064L119.704 18.7347C119.853 18.7347 120 18.822 120 18.9717V19.5295L119.912 19.5896C119.912 19.5896 117.642 19.5295 116.491 19.5295C115.459 19.5295 112.569 19.5896 112.569 19.5896L112.542 19.5295V18.9717C112.542 18.822 112.601 18.7347 112.752 18.7347L113.577 18.6746C114.696 18.5873 115.111 18.2313 114.815 17.4082L113.017 12.4242H106.884C106.176 12.4242 105.999 12.5422 105.853 12.9231L104.142 17.1985C103.847 17.94 104.231 18.5896 105.321 18.678ZM112.543 11.1885L109.684 3.31906H109.625L106.677 10.8064C106.559 11.1034 106.765 11.1896 107.413 11.1896H112.543V11.1885ZM21.7295 17.5579C21.7295 18.2064 22.0243 18.5896 22.9676 18.678L23.5866 18.7381C23.6751 18.7381 23.7635 18.796 23.7635 18.9139V19.5329L23.734 19.593C23.734 19.593 21.4937 19.5329 20.5799 19.5329C19.7545 19.5329 17.4553 19.593 17.4553 19.593L17.3963 19.5329V18.9139C17.3963 18.796 17.4848 18.7381 17.6027 18.7381L18.1922 18.678C19.165 18.5896 19.4598 18.118 19.4598 17.5579V7.74184C19.4598 7.0956 19.1049 6.91534 18.1922 6.82917L17.6027 6.76795C17.4848 6.76795 17.3963 6.74074 17.3963 6.65004V5.97092L17.4258 5.91196C17.4258 5.91196 19.7545 5.97092 20.6683 5.97092C21.4642 5.97092 23.734 5.91196 23.734 5.91196L23.7635 5.97092V6.61943C23.7635 6.70786 23.7045 6.76681 23.5866 6.76681L22.9676 6.8269C22.0538 6.9142 21.7295 7.15116 21.7295 7.74184V17.5579ZM45.527 17.5579C45.527 18.2064 45.8218 18.5896 46.7651 18.678L47.3841 18.7381C47.4725 18.7381 47.561 18.796 47.561 18.9139V19.5329L47.5315 19.593C47.5315 19.593 45.2912 19.5329 44.3774 19.5329C43.552 19.5329 41.2528 19.593 41.2528 19.593L41.1938 19.5329V18.9139C41.1938 18.796 41.2822 18.7381 41.4002 18.7381L41.9897 18.678C42.9625 18.5896 43.2573 18.118 43.2573 17.5579V7.74184C43.2573 7.0956 42.9035 6.91534 41.9897 6.82917L41.4002 6.76795C41.2822 6.76795 41.1938 6.74074 41.1938 6.65004V5.97092L41.2233 5.91196C41.2233 5.91196 43.552 5.97092 44.4658 5.97092C45.2617 5.97092 47.5315 5.91196 47.5315 5.91196L47.561 5.97092V6.61943C47.561 6.70786 47.502 6.76681 47.3841 6.76681L46.7651 6.8269C45.8513 6.9142 45.527 7.15116 45.527 7.74184V17.5579ZM50.1278 6.76795C51.5133 6.85638 51.8965 6.88586 51.8965 7.79967L51.8999 17.703C51.8999 18.2631 51.6051 18.5284 50.6913 18.6463L50.0723 18.7347C49.9544 18.7631 49.8954 18.7925 49.8954 18.9105V19.5295L49.9249 19.5896C49.9249 19.5896 52.1357 19.5295 52.9611 19.5295C53.8749 19.5295 56.2342 19.5896 56.2342 19.5896L56.2615 19.5295V18.9105C56.2615 18.7948 56.1719 18.7631 56.054 18.7347L55.4633 18.6463C54.5189 18.5 54.1651 18.3504 54.1651 17.703V13.7553C54.6969 13.99 55.2864 14.0501 56.0234 14.0501C60.2069 14.0501 61.0618 11.2803 61.0618 9.5105C61.0618 7.97539 60.2953 5.9131 56.1118 5.9131C55.5285 5.9131 54.92 5.92996 54.3537 5.94565L54.3537 5.94565C53.8611 5.9593 53.4006 5.97205 53.0166 5.97205C52.5194 5.97205 51.723 5.95211 51.0566 5.93542L51.0566 5.93542C50.5773 5.92341 50.1654 5.9131 49.9804 5.9131L49.9215 5.94258V6.62056C49.9215 6.68065 49.951 6.76795 50.1278 6.76795ZM56.0823 13.1952C55.4928 13.1952 54.7558 13.1669 54.1663 12.9299L54.1651 7.8008C54.1651 7.03438 54.5189 6.76908 55.9349 6.76908C57.5539 6.76908 58.7036 7.32916 58.7036 9.86423C58.7036 12.1317 57.8521 13.1952 56.0823 13.1952ZM66.1387 19.5329C65.2544 19.5329 63.2216 19.593 63.2216 19.593L63.1909 19.5329V18.8844C63.1909 18.8266 63.2216 18.7381 63.3678 18.7381L64.0481 18.678C64.963 18.5896 65.2283 18.0001 65.2283 17.4116V7.68402C65.2283 7.00377 64.8746 6.88699 64.0481 6.82917L63.3678 6.76795C63.1909 6.74074 63.1909 6.68065 63.1909 6.65004V5.97092L63.2216 5.91196C63.2216 5.91196 65.5197 5.97092 66.404 5.97092H70.7372C71.6215 5.97092 73.7156 5.91196 73.7156 5.91196L73.7768 5.97092C73.804 7.23846 74.0104 8.39035 74.219 9.50936L73.4843 9.62728C73.1612 8.53547 72.6011 6.97429 70.7145 6.97429H68.3563C67.7963 6.97429 67.5015 7.18063 67.5015 7.68062V11.956H69.7112C70.5377 11.956 70.7429 11.6023 70.8619 11.0127L71.0377 10.3937C71.0377 10.3053 71.0978 10.2452 71.2145 10.2452H71.7134C71.7746 10.2452 71.7746 10.2758 71.7746 10.3336C71.7591 10.4978 71.74 10.6735 71.7203 10.856V10.8561V10.8562V10.8563V10.8563L71.7202 10.8566L71.7202 10.8567C71.6621 11.3936 71.5977 11.9883 71.5977 12.5161C71.5977 13.0066 71.6501 13.4457 71.7026 13.8849C71.7288 14.1045 71.755 14.324 71.7746 14.55L71.7134 14.6101H71.2145C71.0683 14.6101 71.0059 14.55 71.0059 14.4616L70.8585 13.8142C70.7406 13.2235 70.4753 12.8993 69.7055 12.8993H67.497V17.4105C67.497 17.9683 67.8178 18.5284 68.3518 18.5284H71.1522C72.6555 18.5284 73.4832 17.5851 73.8346 16.05L74.5693 16.1384L73.9786 19.5272L73.9197 19.5862C73.9197 19.5862 72.1805 19.5272 71.2962 19.5272L66.1387 19.5329ZM97.478 18.678C96.5347 18.5896 96.2399 18.2064 96.2399 17.5579L96.2365 7.74184C96.2365 7.15116 96.5596 6.9142 97.4745 6.8269L98.0936 6.76681C98.2092 6.76681 98.2704 6.70786 98.2704 6.61943V5.97092L98.2432 5.91196C98.2432 5.91196 95.9712 5.97092 95.1764 5.97092C94.2649 5.97092 91.9362 5.91196 91.9362 5.91196L91.9067 5.97092V6.65004C91.9067 6.74074 91.9951 6.76795 92.113 6.76795L92.7037 6.82917C93.6164 6.91534 93.9713 7.0956 93.9713 7.74184V17.5579C93.9713 18.118 93.6753 18.5896 92.7037 18.678L92.113 18.7381C91.9951 18.7381 91.9067 18.796 91.9067 18.9139V19.5329L91.9668 19.593C91.9668 19.593 94.2649 19.5329 95.0914 19.5329C96.0041 19.5329 98.2444 19.593 98.2444 19.593L98.2738 19.5329V18.9139C98.2738 18.796 98.1854 18.7381 98.097 18.7381L97.478 18.678ZM84.6553 15.9193C84.6553 17.1053 84.771 17.8381 85.0024 18.1177C85.2435 18.3877 85.8365 18.5564 86.7814 18.6239C86.8779 18.7204 86.9261 18.8891 86.9261 19.1302C86.9357 19.3616 86.8875 19.5158 86.7814 19.593C85.0844 19.5544 83.99 19.5351 83.4982 19.5351C82.9486 19.5351 81.8446 19.5544 80.1861 19.593C80.109 19.5158 80.0656 19.3616 80.0559 19.1302C80.0559 18.8891 80.0993 18.7204 80.1861 18.6239C81.1311 18.5468 81.7192 18.3732 81.9507 18.1032C82.1917 17.8333 82.3122 17.1053 82.3122 15.9193V8.4272C82.3122 8.03187 82.2158 7.68475 82.023 7.38583C81.8398 7.07729 81.5505 6.92301 81.1552 6.923H79.8824C79.2267 6.92301 78.759 7.10139 78.4794 7.45815C78.2094 7.80528 77.9154 8.53327 77.5972 9.64213C77.3175 9.66142 77.0524 9.63249 76.8017 9.55535C76.9559 8.62969 77.0379 7.27495 77.0475 5.49112C77.3465 5.45256 77.5923 5.45256 77.7852 5.49112C77.8816 5.77076 78.1468 5.91057 78.5807 5.91056H88.0832C88.5171 5.91057 88.787 5.77076 88.8931 5.49112C89.1727 5.41399 89.4186 5.41399 89.6307 5.49112C89.6307 7.11103 89.7079 8.46578 89.8622 9.55535C89.6693 9.67106 89.4041 9.69999 89.0667 9.64213C88.7677 8.55256 88.4737 7.82938 88.1844 7.47261C87.9048 7.10621 87.4468 6.92301 86.8104 6.923H85.8413C85.4653 6.92301 85.1712 7.08211 84.9591 7.40029C84.7566 7.70886 84.6553 8.0608 84.6553 8.45612V15.9193ZM34.2971 18.1177C34.0657 17.8381 33.95 17.1053 33.95 15.9193V8.45612C33.95 8.0608 34.0512 7.70886 34.2537 7.40029C34.4658 7.08211 34.7599 6.92301 35.136 6.923H36.105C36.7414 6.92301 37.1994 7.10621 37.479 7.47261C37.7683 7.82938 38.0624 8.55256 38.3613 9.64213C38.6988 9.69999 38.964 9.67106 39.1568 9.55535C39.0025 8.46578 38.9254 7.11103 38.9254 5.49112C38.7133 5.41399 38.4674 5.41399 38.1878 5.49112C38.0817 5.77076 37.8117 5.91057 37.3778 5.91056H27.8753C27.4414 5.91057 27.1762 5.77076 27.0798 5.49112C26.887 5.45256 26.6411 5.45256 26.3422 5.49112C26.3325 7.27495 26.2506 8.62969 26.0963 9.55535C26.347 9.63249 26.6122 9.66142 26.8918 9.64213C27.21 8.53327 27.5041 7.80528 27.7741 7.45815C28.0537 7.10139 28.5213 6.92301 29.177 6.923H30.4498C30.8451 6.92301 31.1344 7.07729 31.3176 7.38583C31.5105 7.68475 31.6069 8.03187 31.6069 8.4272V15.9193C31.6069 17.1053 31.4864 17.8333 31.2453 18.1032C31.0139 18.3732 30.4257 18.5468 29.4808 18.6239C29.394 18.7204 29.3506 18.8891 29.3506 19.1302C29.3602 19.3616 29.4036 19.5158 29.4808 19.593C31.1392 19.5544 32.2433 19.5351 32.7929 19.5351C33.2846 19.5351 34.379 19.5544 36.0761 19.593C36.1821 19.5158 36.2304 19.3616 36.2207 19.1302C36.2207 18.8891 36.1725 18.7204 36.0761 18.6239C35.1311 18.5564 34.5381 18.3877 34.2971 18.1177Z" fill="black"/>
</svg>

<svg xmlns="http://www.w3.org/2000/svg" width="120" height="20" fill="none"><path fill="#000" fill-rule="evenodd" d="M13.263.512c.01.244.053.404.131.482 1.034.078 1.648.322 1.843.731.205.41.117 1.024-.263 1.843L10.25 15.573h-.147L5.337 3.378c-.36-.887-.448-1.477-.263-1.77.185-.302.78-.506 1.784-.614.078-.087.117-.248.117-.482 0-.244-.039-.414-.117-.512-1.881.039-3.09.059-3.626.058C3.037.058 1.998.04.117 0 .039.098 0 .263 0 .497c0 .234.049.4.146.497.82.069 1.355.249 1.609.541.263.283.624 1.01 1.082 2.18l5.907 15.324c.176.468.405.702.688.702.302-.01.54-.244.716-.702l6.2-15.266.337-.834c.068-.146.19-.365.365-.658.176-.302.346-.512.512-.629a3.79 3.79 0 0 1 .702-.38c.302-.136.643-.229 1.023-.278.098-.087.147-.248.147-.482 0-.244-.05-.414-.147-.512-1.598.039-2.476.059-2.632.058-.292 0-1.38-.019-3.26-.058-.088.098-.132.268-.132.512Zm92.058 18.166.855.06c.118 0 .236.089.236.235v.56l-.059.06s-3.213-.06-3.921-.06c-.767 0-2.654.06-2.654.06l-.06-.06v-.56c0-.146.089-.235.237-.235 1.298-.088 2.033-.325 2.858-2.212l6.543-15.33c.323-.766.56-1.062 1.005-1.062.41 0 .559.296.793.886l6.043 15.977c.414 1.15 1.005 1.591 2.184 1.71l.323.028c.149 0 .296.087.296.237v.557l-.088.06s-2.27-.06-3.421-.06c-1.032 0-3.922.06-3.922.06l-.027-.06v-.557c0-.15.059-.237.21-.237l.825-.06c1.119-.088 1.534-.444 1.238-1.267l-1.798-4.984h-6.133c-.708 0-.885.118-1.031.5l-1.711 4.274c-.295.742.089 1.392 1.179 1.48Zm7.222-7.49-2.859-7.869h-.059l-2.948 7.487c-.118.297.088.384.736.384h5.13v-.002Zm-90.814 6.37c0 .648.295 1.032 1.239 1.12l.619.06c.088 0 .177.058.177.176v.619l-.03.06s-2.24-.06-3.154-.06c-.825 0-3.125.06-3.125.06l-.059-.06v-.62c0-.117.089-.175.207-.175l.59-.06c.972-.088 1.267-.56 1.267-1.12V7.742c0-.646-.355-.827-1.268-.913l-.59-.061c-.117 0-.206-.027-.206-.118v-.68l.03-.058s2.329.059 3.242.059c.796 0 3.066-.059 3.066-.059l.03.059v.648c0 .089-.06.148-.177.148l-.62.06c-.913.087-1.237.324-1.237.915v9.816Zm23.798 0c0 .648.295 1.032 1.238 1.12l.62.06c.087 0 .176.058.176.176v.619l-.03.06s-2.24-.06-3.154-.06c-.825 0-3.124.06-3.124.06l-.06-.06v-.62c0-.117.09-.175.207-.175l.59-.06c.972-.088 1.267-.56 1.267-1.12V7.742c0-.646-.353-.827-1.267-.913l-.59-.061c-.118 0-.206-.027-.206-.118v-.68l.03-.058s2.328.059 3.242.059c.796 0 3.066-.059 3.066-.059l.029.059v.648c0 .089-.059.148-.177.148l-.619.06c-.914.087-1.238.324-1.238.915v9.816Zm4.6-10.79c1.386.088 1.77.118 1.77 1.032l.003 9.903c0 .56-.295.825-1.209.943l-.619.089c-.118.028-.177.058-.177.175v.62l.03.06s2.21-.06 3.036-.06c.914 0 3.273.06 3.273.06l.027-.06v-.62c0-.115-.09-.147-.207-.175l-.59-.089c-.945-.146-1.299-.296-1.299-.943v-3.948c.532.235 1.121.295 1.858.295 4.184 0 5.039-2.77 5.039-4.54 0-1.535-.767-3.597-4.95-3.597-.584 0-1.192.017-1.758.033-.493.013-.953.026-1.337.026-.498 0-1.294-.02-1.96-.037-.48-.012-.892-.022-1.077-.022l-.058.03v.678c0 .06.029.147.206.147Zm5.955 6.427c-.59 0-1.326-.028-1.916-.265V7.8c0-.766.353-1.03 1.769-1.03 1.619 0 2.769.56 2.769 3.094 0 2.268-.852 3.331-2.622 3.331Zm10.057 6.338c-.885 0-2.917.06-2.917.06l-.031-.06v-.649c0-.057.03-.146.177-.146l.68-.06c.915-.088 1.18-.678 1.18-1.266V7.684c0-.68-.353-.797-1.18-.855l-.68-.061c-.177-.027-.177-.087-.177-.118v-.68l.03-.058s2.299.059 3.183.059h4.333c.885 0 2.979-.059 2.979-.059l.06.059c.028 1.267.234 2.42.443 3.538l-.735.118c-.323-1.092-.883-2.653-2.77-2.653h-2.358c-.56 0-.855.207-.855.707v4.275h2.21c.827 0 1.032-.354 1.15-.943l.177-.62c0-.088.06-.148.177-.148h.498c.062 0 .062.03.062.089-.016.164-.035.34-.055.522-.058.538-.122 1.132-.122 1.66 0 .49.052.93.105 1.369.026.22.052.439.072.665l-.062.06h-.498c-.147 0-.21-.06-.21-.148l-.146-.648c-.118-.59-.384-.915-1.153-.915h-2.209v4.511c0 .558.32 1.118.855 1.118h2.8c1.504 0 2.331-.943 2.683-2.478l.734.088-.59 3.39-.06.058s-1.739-.059-2.623-.059l-5.157.006Zm31.339-.855c-.943-.088-1.238-.472-1.238-1.12l-.003-9.816c0-.59.323-.828 1.238-.915l.619-.06c.115 0 .176-.06.176-.148v-.648l-.027-.059s-2.272.059-3.067.059c-.911 0-3.24-.059-3.24-.059l-.03.059v.679c0 .09.09.118.207.118l.59.061c.913.086 1.268.267 1.268.913v9.816c0 .56-.296 1.032-1.267 1.12l-.591.06c-.118 0-.206.058-.206.176v.619l.06.06s2.298-.06 3.124-.06c.913 0 3.153.06 3.153.06l.03-.06v-.62c0-.117-.089-.175-.177-.175l-.619-.06Zm-12.823-2.759c0 1.186.116 1.92.347 2.199.242.27.835.438 1.78.506.096.096.144.265.144.506.01.232-.038.386-.145.463a191.529 191.529 0 0 0-3.283-.058c-.55 0-1.653.02-3.312.058-.077-.077-.12-.231-.13-.463 0-.24.043-.41.13-.506.945-.077 1.533-.25 1.765-.52.24-.27.361-.999.361-2.185V8.427c0-.395-.096-.742-.289-1.041-.183-.309-.472-.463-.868-.463h-1.273c-.655 0-1.123.178-1.403.535-.27.347-.564 1.075-.882 2.184-.28.02-.545-.01-.795-.087.154-.925.236-2.28.245-4.064a2.34 2.34 0 0 1 .738 0c.097.28.362.42.796.42h9.502c.434 0 .704-.14.81-.42.28-.077.526-.077.738 0 0 1.62.077 2.975.231 4.064-.193.116-.458.145-.795.087-.3-1.09-.593-1.813-.883-2.17-.28-.366-.737-.549-1.374-.549h-.969c-.376 0-.67.16-.882.477-.202.309-.304.66-.304 1.056v7.463Zm-50.358 2.199c-.231-.28-.347-1.013-.347-2.199V8.456c0-.395.101-.747.304-1.056.212-.318.506-.477.882-.477h.969c.636 0 1.094.183 1.374.55.29.356.583 1.08.882 2.17.338.057.603.028.796-.088-.154-1.09-.232-2.444-.232-4.064-.212-.077-.458-.077-.737 0-.106.28-.376.42-.81.42h-9.503c-.434 0-.699-.14-.795-.42a2.339 2.339 0 0 0-.738 0c-.01 1.784-.091 3.139-.246 4.064.251.077.516.106.796.087.318-1.109.612-1.837.882-2.184.28-.357.747-.535 1.403-.535h1.273c.395 0 .684.154.868.463.192.299.289.646.289 1.041v7.492c0 1.186-.12 1.914-.362 2.184-.231.27-.82.444-1.764.52-.087.097-.13.266-.13.507.01.232.053.386.13.463 1.658-.039 2.762-.058 3.312-.058.492 0 1.586.02 3.283.058.106-.077.154-.231.145-.463 0-.24-.048-.41-.145-.506-.945-.068-1.538-.236-1.779-.506Z" clip-rule="evenodd"/></svg>
